seeds/icons/gift.svg

<?xml version="1.0" encoding="utf-8"?><!-- Uploaded to: SVG Repo, www.svgrepo.com, Generator: SVG Repo Mixer Tools -->
<svg width="1.5rem" height="1.5rem" viewBox="0 0 24 24" fill="none" xmlns="http://www.w3.org/2000/svg">
<path d="M12 7V20M12 7H8.46429C7.94332 7 7.4437 6.78929 7.07533 6.41421C6.70695 6.03914 6.5 5.53043 6.5 5C6.5 4.46957 6.70695 3.96086 7.07533 3.58579C7.4437 3.21071 7.94332 3 8.46429 3C11.2143 3 12 7 12 7ZM12 7H15.5357C16.0567 7 16.5563 6.78929 16.9247 6.41421C17.293 6.03914 17.5 5.53043 17.5 5C17.5 4.46957 17.293 3.96086 16.9247 3.58579C16.5563 3.21071 16.0567 3 15.5357 3C12.7857 3 12 7 12 7ZM5 12H19V17.8C19 18.9201 19 19.4802 18.782 19.908C18.5903 20.2843 18.2843 20.5903 17.908 20.782C17.4802 21 16.9201 21 15.8 21H8.2C7.07989 21 6.51984 21 6.09202 20.782C5.71569 20.5903 5.40973 20.2843 5.21799 19.908C5 19.4802 5 18.9201 5 17.8V12ZM4.6 12H19.4C19.9601 12 20.2401 12 20.454 11.891C20.6422 11.7951 20.7951 11.6422 20.891 11.454C21 11.2401 21 10.9601 21 10.4V8.6C21 8.03995 21 7.75992 20.891 7.54601C20.7951 7.35785 20.6422 7.20487 20.454 7.10899C20.2401 7 19.9601 7 19.4 7H4.6C4.03995 7 3.75992 7 3.54601 7.10899C3.35785 7.20487 3.20487 7.35785 3.10899 7.54601C3 7.75992 3 8.03995 3 8.6V10.4C3 10.9601 3 11.2401 3.10899 11.454C3.20487 11.6422 3.35785 11.7951 3.54601 11.891C3.75992 12 4.03995 12 4.6 12Z" stroke="#000000" stroke-width="2" stroke-linecap="round" stroke-linejoin="round"/>
</svg>

<svg xmlns="http://www.w3.org/2000/svg" width="1.5rem" height="1.5rem" fill="none" viewBox="0 0 24 24"><path stroke="#000" stroke-linecap="round" stroke-linejoin="round" stroke-width="2" d="M12 7v13m0-13H8.464c-.52 0-1.02-.21-1.389-.586A2.02 2.02 0 0 1 6.5 5c0-.53.207-1.04.575-1.414A1.95 1.95 0 0 1 8.465 3C11.214 3 12 7 12 7m0 0h3.536c.52 0 1.02-.21 1.389-.586.368-.375.575-.884.575-1.414s-.207-1.04-.575-1.414A1.95 1.95 0 0 0 15.535 3C12.786 3 12 7 12 7m-7 5h14v5.8c0 1.12 0 1.68-.218 2.108a2 2 0 0 1-.874.874C17.48 21 16.92 21 15.8 21H8.2c-1.12 0-1.68 0-2.108-.218a2 2 0 0 1-.874-.874C5 19.48 5 18.92 5 17.8zm-.4 0h14.8c.56 0 .84 0 1.054-.109a1 1 0 0 0 .437-.437C21 11.24 21 10.96 21 10.4V8.6c0-.56 0-.84-.109-1.054a1 1 0 0 0-.437-.437C20.24 7 19.96 7 19.4 7H4.6c-.56 0-.84 0-1.054.109a1 1 0 0 0-.437.437C3 7.76 3 8.04 3 8.6v1.8c0 .56 0 .84.109 1.054a1 1 0 0 0 .437.437C3.76 12 4.04 12 4.6 12"/></svg>
